build/img/calendar.svg

<svg xmlns="http://www.w3.org/2000/svg" width="234" height="234" viewBox="0 0 234 234"><defs><style>.cls-1 { fill: #979797; fill-rule: evenodd; }</style></defs><path id="Forma_1_copy_2" class="cls-1" d="M484.535 812.086a5.372 5.372 0 0 0-5.433-5.309h-18.955a5.369 5.369 0 0 0-5.427 5.309v18.534a5.371 5.371 0 0 0 5.427 5.314h18.953a5.374 5.374 0 0 0 5.433-5.314v-18.534zm47.37 0a5.37 5.37 0 0 0-5.426-5.309h-18.958a5.37 5.37 0 0 0-5.429 5.309v18.534a5.373 5.373 0 0 0 5.429 5.314h18.958a5.372 5.372 0 0 0 5.426-5.314v-18.534zm47.373 0a5.37 5.37 0 0 0-5.429-5.309h-18.955a5.371 5.371 0 0 0-5.432 5.309v18.534a5.373 5.373 0 0 0 5.432 5.314h18.955a5.373 5.373 0 0 0 5.429-5.314v-18.534zm-94.743 46.326a5.37 5.37 0 0 0-5.435-5.312h-18.953a5.367 5.367 0 0 0-5.427 5.309v18.535a5.371 5.371 0 0 0 5.427 5.3h18.953a5.374 5.374 0 0 0 5.433-5.3v-18.532zm47.37 0a5.368 5.368 0 0 0-5.426-5.309h-18.958a5.368 5.368 0 0 0-5.429 5.309v18.535a5.373 5.373 0 0 0 5.429 5.3h18.958a5.372 5.372 0 0 0 5.426-5.3v-18.535zm47.373 0a5.368 5.368 0 0 0-5.427-5.309h-18.957a5.369 5.369 0 0 0-5.432 5.309v18.535a5.373 5.373 0 0 0 5.432 5.3h18.957a5.372 5.372 0 0 0 5.427-5.3v-18.535zm33.893-149.367v28.308c0 12.793-10.615 23.1-23.7 23.1h-14.95c-13.083 0-23.837-10.308-23.837-23.1v-28.415h-67.373v28.415c0 12.793-10.755 23.1-23.837 23.1h-14.951c-13.082 0-23.7-10.308-23.7-23.1v-28.308c-11.434.338-20.829 9.592-20.829 20.96v165.895a21.32 21.32 0 0 0 21.449 21.1h191.1a21.342 21.342 0 0 0 21.457-21.1v-165.895c0-11.368-9.4-20.622-20.829-20.96zm-6.945 176.518a9.171 9.171 0 0 1-9.271 9.067h-160.321a9.173 9.173 0 0 1-9.273-9.067v-85.691a9.174 9.174 0 0 1 9.273-9.067h160.319a9.174 9.174 0 0 1 9.273 9.067v85.691zm-161.755-140.283h14.785a8.033 8.033 0 0 0 8.128-7.944v-46.4a8.038 8.038 0 0 0-8.128-7.94h-14.785a8.037 8.037 0 0 0-8.128 7.94v46.4a8.032 8.032 0 0 0 8.128 7.944zm129.864 0h14.787a8.032 8.032 0 0 0 8.124-7.944v-46.4a8.037 8.037 0 0 0-8.124-7.94h-14.787a8.037 8.037 0 0 0-8.126 7.94v46.4a8.032 8.032 0 0 0 8.126 7.944z" transform="translate(-400 -683)"/></svg>

<svg xmlns="http://www.w3.org/2000/svg" width="234" height="234" viewBox="0 0 234 234">
  <defs>
    <style>
      .cls-1 {
        fill: #979797;
        fill-rule: evenodd;
      }
    </style>
  </defs>
  <path id="Forma_1_copy_2" data-name="Forma 1 copy 2" class="cls-1" d="M484.535,812.086a5.372,5.372,0,0,0-5.433-5.309H460.147a5.369,5.369,0,0,0-5.427,5.309V830.62a5.371,5.371,0,0,0,5.427,5.314H479.1a5.374,5.374,0,0,0,5.433-5.314V812.086h0Zm47.37,0a5.37,5.37,0,0,0-5.426-5.309H507.521a5.37,5.37,0,0,0-5.429,5.309V830.62a5.373,5.373,0,0,0,5.429,5.314h18.958a5.372,5.372,0,0,0,5.426-5.314V812.086Zm47.373,0a5.37,5.37,0,0,0-5.429-5.309H554.894a5.371,5.371,0,0,0-5.432,5.309V830.62a5.373,5.373,0,0,0,5.432,5.314h18.955a5.373,5.373,0,0,0,5.429-5.314V812.086Zm-94.743,46.326A5.37,5.37,0,0,0,479.1,853.1H460.147a5.367,5.367,0,0,0-5.427,5.309v18.535a5.371,5.371,0,0,0,5.427,5.3H479.1a5.374,5.374,0,0,0,5.433-5.3V858.412h0Zm47.37,0a5.368,5.368,0,0,0-5.426-5.309H507.521a5.368,5.368,0,0,0-5.429,5.309v18.535a5.373,5.373,0,0,0,5.429,5.3h18.958a5.372,5.372,0,0,0,5.426-5.3V858.412Zm47.373,0a5.368,5.368,0,0,0-5.427-5.309H554.894a5.369,5.369,0,0,0-5.432,5.309v18.535a5.373,5.373,0,0,0,5.432,5.3h18.957a5.372,5.372,0,0,0,5.427-5.3V858.412h0Zm33.893-149.367v28.308c0,12.793-10.615,23.1-23.7,23.1h-14.95c-13.083,0-23.837-10.308-23.837-23.1V708.938H483.311v28.415c0,12.793-10.755,23.1-23.837,23.1H444.523c-13.082,0-23.7-10.308-23.7-23.1V709.045c-11.434.338-20.829,9.592-20.829,20.96V895.9a21.32,21.32,0,0,0,21.449,21.1h191.1A21.342,21.342,0,0,0,634,895.9V730.005C634,718.637,624.6,709.383,613.171,709.045Zm-6.945,176.518a9.171,9.171,0,0,1-9.271,9.067H436.634a9.173,9.173,0,0,1-9.273-9.067V799.872a9.174,9.174,0,0,1,9.273-9.067H596.953a9.174,9.174,0,0,1,9.273,9.067v85.691h0ZM444.471,745.28h14.785a8.033,8.033,0,0,0,8.128-7.944v-46.4a8.038,8.038,0,0,0-8.128-7.94H444.471a8.037,8.037,0,0,0-8.128,7.94v46.4A8.032,8.032,0,0,0,444.471,745.28Zm129.864,0h14.787a8.032,8.032,0,0,0,8.124-7.944v-46.4a8.037,8.037,0,0,0-8.124-7.94H574.335a8.037,8.037,0,0,0-8.126,7.94v46.4A8.032,8.032,0,0,0,574.335,745.28Z" transform="translate(-400 -683)"/>
</svg>
